X:
T:Pordic
C:Laurence Beaudry
M:4/4
L:1/8
K:D
dcdc B2F2 | dcde f4 | gfed c2b2 | abag f2e2 | 
dcdc B2F2 | dcde f4 | gfed c2A2 |1 B4- B3c :|2 B4- B2GD |:
E3F GFEA | D3E FED2 | CDEF G2B2 | edcB A4 |
E3F GFEA | D3E FED2 | CDED C2A,2 |1 B,4 C2D2 :|2 B,8 |]

